packages/ffe-icons/icons/open/400/sm/memory_alt.svg

<svg xmlns="http://www.w3.org/2000/svg" height="20" viewBox="0 -960 960 960" width="20"><path d="M299.79-384q15.21 0 25.71-10.35T336-420v-120q0-15.3-10.29-25.65Q315.42-576 300.21-576t-25.71 10.35Q264-555.3 264-540v120q0 15.3 10.29 25.65Q284.58-384 299.79-384Zm180 0q15.21 0 25.71-10.35T516-420v-120q0-15.3-10.29-25.65Q495.42-576 480.21-576t-25.71 10.35Q444-555.3 444-540v120q0 15.3 10.29 25.65Q464.58-384 479.79-384Zm180 0q15.21 0 25.71-10.35T696-420v-120q0-15.3-10.29-25.65Q675.42-576 660.21-576t-25.71 10.35Q624-555.3 624-540v120q0 15.3 10.29 25.65Q644.58-384 659.79-384ZM168-288h624v-384H168v384Zm0 0v-384 384Zm0 72q-29.7 0-50.85-21.15Q96-258.3 96-288v-384q0-29.7 21.15-50.85Q138.3-744 168-744h48v-35.79q0-15.21 10.29-25.71t25.5-10.5q15.21 0 25.71 10.35T288-780v36h156v-35.79q0-15.21 10.29-25.71t25.5-10.5q15.21 0 25.71 10.35T516-780v36h132v-35.79q0-15.21 10.29-25.71t25.5-10.5q15.21 0 25.71 10.35T720-780v36h72q29.7 0 50.85 21.15Q864-701.7 864-672v384q0 29.7-21.15 50.85Q821.7-216 792-216h-72v35.79q0 15.21-10.29 25.71t-25.5 10.5q-15.21 0-25.71-10.35T648-180v-36H516v35.79q0 15.21-10.29 25.71t-25.5 10.5q-15.21 0-25.71-10.35T444-180v-36H288v35.79q0 15.21-10.29 25.71t-25.5 10.5q-15.21 0-25.71-10.35T216-180v-36h-48Z"/></svg>

<svg xmlns="http://www.w3.org/2000/svg" height="20" viewBox="0 -960 960 960" width="20"><path d="M299.789-384Q315-384 325.5-394.35 336-404.7 336-420v-120q0-15.3-10.289-25.65-10.29-10.35-25.5-10.35Q285-576 274.5-565.65 264-555.3 264-540v120q0 15.3 10.289 25.65 10.29 10.35 25.5 10.35Zm180 0Q495-384 505.5-394.35 516-404.7 516-420v-120q0-15.3-10.289-25.65-10.29-10.35-25.5-10.35Q465-576 454.5-565.65 444-555.3 444-540v120q0 15.3 10.289 25.65 10.29 10.35 25.5 10.35Zm180 0Q675-384 685.5-394.35 696-404.7 696-420v-120q0-15.3-10.289-25.65-10.29-10.35-25.5-10.35Q645-576 634.5-565.65 624-555.3 624-540v120q0 15.3 10.289 25.65 10.29 10.35 25.5 10.35ZM168-288h624v-384H168v384Zm0 0v-384 384Zm0 72q-29.7 0-50.85-21.15Q96-258.3 96-288v-384q0-29.7 21.15-50.85Q138.3-744 168-744h48v-35.789Q216-795 226.289-805.5q10.29-10.5 25.5-10.5Q267-816 277.5-805.65 288-795.3 288-780v36h156v-35.789Q444-795 454.289-805.5q10.29-10.5 25.5-10.5Q495-816 505.5-805.65 516-795.3 516-780v36h132v-35.789Q648-795 658.289-805.5q10.29-10.5 25.5-10.5Q699-816 709.5-805.65 720-795.3 720-780v36h72q29.7 0 50.85 21.15Q864-701.7 864-672v384q0 29.7-21.15 50.85Q821.7-216 792-216h-72v35.789Q720-165 709.711-154.5q-10.29 10.5-25.5 10.5Q669-144 658.5-154.35 648-164.7 648-180v-36H516v35.789Q516-165 505.711-154.5q-10.29 10.5-25.5 10.5Q465-144 454.5-154.35 444-164.7 444-180v-36H288v35.789Q288-165 277.711-154.5q-10.29 10.5-25.5 10.5Q237-144 226.5-154.35 216-164.7 216-180v-36h-48Z"/></svg>
